!!!OTL: 169. Das Fischen auf der See oder der Doppelkreis. / Vierte Art.
!!!ARE: Europa, Mitteleuropa, Deutschland, Rheinland, Bacharach
!!!SCT: K2169C
!!!TXL: @@DE
!!!YEM: Copyright 1995, estate of Helmut Schaffrath.
**kern	**text
*clefG2	*
*M4/4	*
*met(c)	*
*k[f#]	*
*G:	*
=1	=1
{4r	.
4b	Wir
4b	fah-
4b	-ren
=2	=2
4b	auf
4cc	die
2dd}	See,
=3	=3
{4ee	wo
4cc	die
4b	Fiſch-
4a	-lein
=4	=4
2a	ſchwimmen,
4g	.
4r}	.
=5	=5
{4b	Freut
4b	ſich
4b	je-
4b	-der
=6	=6
4b	Got-
4cc	-tes
2dd}	Wehn,
=7	=7
{4ee	wird
4cc	mein
4b	Herʒ
4a	ſchon
=8	=8
2a	fin-
4g	-gen.
4r}	.
=9	=9
{2dd	E-
2b	-wig,
=10	=10
2dd	e-
2b	-wig,
=11	=11
2cc	wir
2ee	ſind
=12	=12
2dd	hier:
4r}	.
{4dd	die
=13	=13
2dd	An-
4b	-na,
4dd	die
=14	=14
2dd	An-
4b	-na,
4b	die
=15	=15
2cc	fol-
2ee	-ge
=16	=16
2dd	mir!
2r}	.
==	==
!!!AGN: Kinder - Lied, Reigen, Tanz - Spiel
!!!ONB: ESAC (Essen Associative Code) Database: KINDER
!!!AMT: simple quadruple
!!!AIN: vox
!!!EED: Helmut Schaffrath
!!!EEV: 1.0
!!Rheinlaendisch (Umgegend von Bacharach).
!!!GTL: Zweites Buch. Kinderspiel: 2. Reigen und Tanzspiele. / C. Ringelreihen mit Aufloesen des Kreises und Haschenspiel.
!!@@COMMENT:"Die rheinländiſche Ausführung iſt abweichend. Die Kinder bilden einen Kreis. Eins geht um denſelben herum und ſingt obigen Reim. 
!!Die jedesmal Gerufene folgt. Sind nach und nach 6-8 nach außen gerufen, ſo treten ſie in den Kreis. Nun fingt der Kreis, indem er die Jnnenſtehenden 
!!umgeht, daß ſich anſchließende Lied vom "Ʒiegenbock in der Mühle" (ſ. weiter unten), ſodaß ein Wechſelgeſang entſteht. Die Außenſtehenden fragen: 
!!"Wo wareſt du" rc. Die Jnnenſtehenden antworten: "Jn der Mühle". - Lokaliſirt auf den Dresdner Carolateich und mit turnkünſtleriſcher Vorführung in Retſch, 
!!Liederbuch f. Mädchen S. 141:[...]"
!!@@END:
!!!URL-scan: https://archive.org/details/DeutschesKinderliedUndKinderspiel/page/468/mode/1up
!!!ENC: Anna Maria Matuszewska
!!!EEV: 2024/03/09
*-	*-
